images/50564492.svg

<?xml version="1.0" encoding="UTF-8"?>
<svg xmlns="http://www.w3.org/2000/svg" xmlns:xlink="http://www.w3.org/1999/xlink" width="300pt" height="300pt" viewBox="0 0 300 300" version="1.1">
<defs>
<g>
<symbol overflow="visible" id="glyph0-0">
<path style="stroke:none;" d="M 0.453125 1.59375 L 0.453125 -6.34375 L 4.953125 -6.34375 L 4.953125 1.59375 Z M 0.953125 1.09375 L 4.453125 1.09375 L 4.453125 -5.84375 L 0.953125 -5.84375 Z M 0.953125 1.09375 "/>
</symbol>
<symbol overflow="visible" id="glyph0-1">
<path style="stroke:none;" d="M 0.890625 -6.5625 L 4.65625 -6.5625 L 4.65625 -5.8125 L 1.765625 -5.8125 L 1.765625 -3.875 L 4.375 -3.875 L 4.375 -3.140625 L 1.765625 -3.140625 L 1.765625 0 L 0.890625 0 Z M 0.890625 -6.5625 "/>
</symbol>
<symbol overflow="visible" id="glyph0-2">
<path style="stroke:none;" d="M 0.890625 -6.5625 L 2.078125 -6.5625 L 4.984375 -1.078125 L 4.984375 -6.5625 L 5.84375 -6.5625 L 5.84375 0 L 4.65625 0 L 1.75 -5.484375 L 1.75 0 L 0.890625 0 Z M 0.890625 -6.5625 "/>
</symbol>
<symbol overflow="visible" id="glyph0-3">
<path style="stroke:none;" d="M 0.890625 -6.5625 L 1.765625 -6.5625 L 1.765625 -3.875 L 5 -3.875 L 5 -6.5625 L 5.890625 -6.5625 L 5.890625 0 L 5 0 L 5 -3.125 L 1.765625 -3.125 L 1.765625 0 L 0.890625 0 Z M 0.890625 -6.5625 "/>
</symbol>
<symbol overflow="visible" id="glyph0-4">
<path style="stroke:none;" d="M 3.546875 -5.953125 C 2.898438 -5.953125 2.382812 -5.710938 2 -5.234375 C 1.625 -4.753906 1.4375 -4.101562 1.4375 -3.28125 C 1.4375 -2.445312 1.625 -1.789062 2 -1.3125 C 2.382812 -0.832031 2.898438 -0.59375 3.546875 -0.59375 C 4.191406 -0.59375 4.703125 -0.832031 5.078125 -1.3125 C 5.453125 -1.789062 5.640625 -2.445312 5.640625 -3.28125 C 5.640625 -4.101562 5.453125 -4.753906 5.078125 -5.234375 C 4.703125 -5.710938 4.191406 -5.953125 3.546875 -5.953125 Z M 3.546875 -6.6875 C 4.460938 -6.6875 5.195312 -6.375 5.75 -5.75 C 6.300781 -5.132812 6.578125 -4.3125 6.578125 -3.28125 C 6.578125 -2.238281 6.300781 -1.410156 5.75 -0.796875 C 5.195312 -0.179688 4.460938 0.125 3.546875 0.125 C 2.617188 0.125 1.878906 -0.179688 1.328125 -0.796875 C 0.773438 -1.410156 0.5 -2.238281 0.5 -3.28125 C 0.5 -4.3125 0.773438 -5.132812 1.328125 -5.75 C 1.878906 -6.375 2.617188 -6.6875 3.546875 -6.6875 Z M 3.546875 -6.6875 "/>
</symbol>
</g>
</defs>
<g id="surface17753">
<rect x="0" y="0" width="300" height="300" style="fill:rgb(100%,100%,100%);fill-opacity:1;stroke:none;"/>
<path style="fill:none;stroke-width:1.2;stroke-linecap:butt;stroke-linejoin:miter;stroke:rgb(20%,80%,80%);stroke-opacity:1;stroke-miterlimit:10;" d="M 35.25 145.5 L 45.269531 150.253906 "/>
<path style="fill:none;stroke-width:1.2;stroke-linecap:butt;stroke-linejoin:miter;stroke:rgb(0%,0%,0%);stroke-opacity:1;stroke-miterlimit:10;" d="M 45.269531 150.253906 L 55.292969 155.003906 "/>
<path style=" stroke:none;fill-rule:nonzero;fill:rgb(100%,100%,100%);fill-opacity:1;" d="M 29.25 140 L 35.25 140 L 35.25 151 L 29.25 151 Z M 29.25 140 "/>
<g style="fill:rgb(20%,80%,80%);fill-opacity:1;">
  <use xlink:href="#glyph0-1" x="29.25" y="148.663086"/>
</g>
<path style="fill:none;stroke-width:1.2;stroke-linecap:butt;stroke-linejoin:miter;stroke:rgb(0%,0%,0%);stroke-opacity:1;stroke-miterlimit:10;" d="M 55.292969 155.003906 L 73.542969 142.402344 "/>
<path style="fill:none;stroke-width:1.2;stroke-linecap:butt;stroke-linejoin:miter;stroke:rgb(0%,0%,0%);stroke-opacity:1;stroke-miterlimit:10;" d="M 60.082031 158.039062 L 74.683594 147.957031 "/>
<path style="fill:none;stroke-width:1.2;stroke-linecap:butt;stroke-linejoin:miter;stroke:rgb(0%,0%,0%);stroke-opacity:1;stroke-miterlimit:10;" d="M 57.078125 177.113281 L 55.292969 155.003906 "/>
<path style="fill:none;stroke-width:1.2;stroke-linecap:butt;stroke-linejoin:miter;stroke:rgb(0%,0%,0%);stroke-opacity:1;stroke-miterlimit:10;" d="M 73.542969 142.402344 L 93.585938 151.90625 "/>
<path style="fill:none;stroke-width:1.2;stroke-linecap:butt;stroke-linejoin:miter;stroke:rgb(0%,0%,0%);stroke-opacity:1;stroke-miterlimit:10;" d="M 93.585938 151.90625 L 102.710938 145.605469 "/>
<path style="fill:none;stroke-width:1.2;stroke-linecap:butt;stroke-linejoin:miter;stroke:rgb(0%,0%,100%);stroke-opacity:1;stroke-miterlimit:10;" d="M 102.710938 145.605469 L 111.839844 139.304688 "/>
<path style="fill:none;stroke-width:1.2;stroke-linecap:butt;stroke-linejoin:miter;stroke:rgb(0%,0%,0%);stroke-opacity:1;stroke-miterlimit:10;" d="M 93.585938 151.90625 L 95.375 174.015625 "/>
<path style="fill:none;stroke-width:1.2;stroke-linecap:butt;stroke-linejoin:miter;stroke:rgb(0%,0%,0%);stroke-opacity:1;stroke-miterlimit:10;" d="M 88.5625 154.539062 L 89.992188 172.226562 "/>
<path style="fill:none;stroke-width:1.2;stroke-linecap:butt;stroke-linejoin:miter;stroke:rgb(0%,0%,100%);stroke-opacity:1;stroke-miterlimit:10;" d="M 111.839844 139.304688 L 112.371094 117.128906 "/>
<path style="fill:none;stroke-width:1.2;stroke-linecap:butt;stroke-linejoin:miter;stroke:rgb(0%,0%,0%);stroke-opacity:1;stroke-miterlimit:10;" d="M 132.761719 146.664062 L 122.300781 142.984375 "/>
<path style="fill:none;stroke-width:1.2;stroke-linecap:butt;stroke-linejoin:miter;stroke:rgb(0%,0%,100%);stroke-opacity:1;stroke-miterlimit:10;" d="M 122.300781 142.984375 L 111.839844 139.304688 "/>
<path style=" stroke:none;fill-rule:nonzero;fill:rgb(100%,100%,100%);fill-opacity:1;" d="M 108.839844 133.804688 L 115.839844 133.804688 L 115.839844 144.804688 L 108.839844 144.804688 Z M 108.839844 133.804688 "/>
<g style="fill:rgb(0%,0%,100%);fill-opacity:1;">
  <use xlink:href="#glyph0-2" x="108.839844" y="142.467773"/>
</g>
<path style="fill:none;stroke-width:1.2;stroke-linecap:butt;stroke-linejoin:miter;stroke:rgb(0%,0%,100%);stroke-opacity:1;stroke-miterlimit:10;" d="M 112.371094 117.128906 L 122.996094 113.957031 "/>
<path style="fill:none;stroke-width:1.2;stroke-linecap:butt;stroke-linejoin:miter;stroke:rgb(0%,0%,0%);stroke-opacity:1;stroke-miterlimit:10;" d="M 122.996094 113.957031 L 133.625 110.78125 "/>
<path style="fill:none;stroke-width:1.2;stroke-linecap:butt;stroke-linejoin:miter;stroke:rgb(0%,0%,100%);stroke-opacity:1;stroke-miterlimit:10;" d="M 115.988281 121.496094 L 124.492188 118.957031 "/>
<path style="fill:none;stroke-width:1.2;stroke-linecap:butt;stroke-linejoin:miter;stroke:rgb(0%,0%,0%);stroke-opacity:1;stroke-miterlimit:10;" d="M 124.492188 118.957031 L 132.992188 116.417969 "/>
<path style=" stroke:none;fill-rule:nonzero;fill:rgb(100%,100%,100%);fill-opacity:1;" d="M 109.371094 111.628906 L 116.371094 111.628906 L 116.371094 122.628906 L 109.371094 122.628906 Z M 109.371094 111.628906 "/>
<g style="fill:rgb(0%,0%,100%);fill-opacity:1;">
  <use xlink:href="#glyph0-2" x="109.371094" y="120.291992"/>
</g>
<path style="fill:none;stroke-width:1.2;stroke-linecap:butt;stroke-linejoin:miter;stroke:rgb(0%,0%,0%);stroke-opacity:1;stroke-miterlimit:10;" d="M 133.625 110.78125 L 146.226562 129.035156 "/>
<path style="fill:none;stroke-width:1.2;stroke-linecap:butt;stroke-linejoin:miter;stroke:rgb(0%,0%,0%);stroke-opacity:1;stroke-miterlimit:10;" d="M 146.226562 129.035156 L 132.761719 146.664062 "/>
<path style="fill:none;stroke-width:1.2;stroke-linecap:butt;stroke-linejoin:miter;stroke:rgb(0%,0%,0%);stroke-opacity:1;stroke-miterlimit:10;" d="M 149.027344 133.964844 L 138.257812 148.066406 "/>
<path style="fill:none;stroke-width:1.2;stroke-linecap:butt;stroke-linejoin:miter;stroke:rgb(0%,0%,0%);stroke-opacity:1;stroke-miterlimit:10;" d="M 168.226562 131.882812 L 146.226562 129.035156 "/>
<path style="fill:none;stroke-width:1.2;stroke-linecap:butt;stroke-linejoin:miter;stroke:rgb(0%,0%,0%);stroke-opacity:1;stroke-miterlimit:10;" d="M 132.761719 146.664062 L 141.296875 167.136719 "/>
<path style="fill:none;stroke-width:1.2;stroke-linecap:butt;stroke-linejoin:miter;stroke:rgb(0%,0%,0%);stroke-opacity:1;stroke-miterlimit:10;" d="M 141.296875 167.136719 L 152.296875 168.558594 "/>
<path style="fill:none;stroke-width:1.2;stroke-linecap:butt;stroke-linejoin:miter;stroke:rgb(0%,0%,100%);stroke-opacity:1;stroke-miterlimit:10;" d="M 152.296875 168.558594 L 163.292969 169.984375 "/>
<path style="fill:none;stroke-width:1.2;stroke-linecap:butt;stroke-linejoin:miter;stroke:rgb(0%,0%,0%);stroke-opacity:1;stroke-miterlimit:10;" d="M 144.164062 162.246094 L 152.964844 163.382812 "/>
<path style="fill:none;stroke-width:1.2;stroke-linecap:butt;stroke-linejoin:miter;stroke:rgb(0%,0%,100%);stroke-opacity:1;stroke-miterlimit:10;" d="M 152.964844 163.382812 L 161.765625 164.523438 "/>
<path style="fill:none;stroke-width:1.2;stroke-linecap:butt;stroke-linejoin:miter;stroke:rgb(0%,0%,100%);stroke-opacity:1;stroke-miterlimit:10;" d="M 163.292969 169.984375 L 176.757812 152.355469 "/>
<path style=" stroke:none;fill-rule:nonzero;fill:rgb(100%,100%,100%);fill-opacity:1;" d="M 160.292969 164.484375 L 167.292969 164.484375 L 167.292969 175.484375 L 160.292969 175.484375 Z M 160.292969 164.484375 "/>
<g style="fill:rgb(0%,0%,100%);fill-opacity:1;">
  <use xlink:href="#glyph0-2" x="160.292969" y="173.147461"/>
</g>
<path style="fill:none;stroke-width:1.2;stroke-linecap:butt;stroke-linejoin:miter;stroke:rgb(0%,0%,100%);stroke-opacity:1;stroke-miterlimit:10;" d="M 176.757812 152.355469 L 172.492188 142.121094 "/>
<path style="fill:none;stroke-width:1.2;stroke-linecap:butt;stroke-linejoin:miter;stroke:rgb(0%,0%,0%);stroke-opacity:1;stroke-miterlimit:10;" d="M 172.492188 142.121094 L 168.226562 131.882812 "/>
<path style="fill:none;stroke-width:1.2;stroke-linecap:butt;stroke-linejoin:miter;stroke:rgb(0%,0%,100%);stroke-opacity:1;stroke-miterlimit:10;" d="M 171.089844 152.316406 L 167.675781 144.128906 "/>
<path style="fill:none;stroke-width:1.2;stroke-linecap:butt;stroke-linejoin:miter;stroke:rgb(0%,0%,0%);stroke-opacity:1;stroke-miterlimit:10;" d="M 167.675781 144.128906 L 164.261719 135.9375 "/>
<path style=" stroke:none;fill-rule:nonzero;fill:rgb(100%,100%,100%);fill-opacity:1;" d="M 173.757812 146.855469 L 180.757812 146.855469 L 180.757812 157.855469 L 173.757812 157.855469 Z M 173.757812 146.855469 "/>
<g style="fill:rgb(0%,0%,100%);fill-opacity:1;">
  <use xlink:href="#glyph0-2" x="173.757812" y="155.518555"/>
</g>
<path style="fill:none;stroke-width:1.2;stroke-linecap:butt;stroke-linejoin:miter;stroke:rgb(0%,0%,0%);stroke-opacity:1;stroke-miterlimit:10;" d="M 168.226562 131.882812 L 174.957031 123.070312 "/>
<path style="fill:none;stroke-width:1.2;stroke-linecap:butt;stroke-linejoin:miter;stroke:rgb(0%,0%,100%);stroke-opacity:1;stroke-miterlimit:10;" d="M 174.957031 123.070312 L 181.691406 114.253906 "/>
<path style="fill:none;stroke-width:1.2;stroke-linecap:butt;stroke-linejoin:miter;stroke:rgb(0%,0%,100%);stroke-opacity:1;stroke-miterlimit:10;" d="M 181.691406 114.253906 L 192.6875 115.679688 "/>
<path style="fill:none;stroke-width:1.2;stroke-linecap:butt;stroke-linejoin:miter;stroke:rgb(0%,0%,0%);stroke-opacity:1;stroke-miterlimit:10;" d="M 192.6875 115.679688 L 203.6875 117.101562 "/>
<path style=" stroke:none;fill-rule:nonzero;fill:rgb(100%,100%,100%);fill-opacity:1;" d="M 174.691406 108.753906 L 188.691406 108.753906 L 188.691406 119.753906 L 174.691406 119.753906 Z M 174.691406 108.753906 "/>
<g style="fill:rgb(0%,0%,100%);fill-opacity:1;">
  <use xlink:href="#glyph0-2" x="174.691406" y="117.416992"/>
  <use xlink:href="#glyph0-3" x="181.668945" y="117.416992"/>
</g>
<path style="fill:none;stroke-width:1.2;stroke-linecap:butt;stroke-linejoin:miter;stroke:rgb(0%,0%,0%);stroke-opacity:1;stroke-miterlimit:10;" d="M 203.6875 117.101562 L 212.222656 137.578125 "/>
<path style="fill:none;stroke-width:1.2;stroke-linecap:butt;stroke-linejoin:miter;stroke:rgb(0%,0%,0%);stroke-opacity:1;stroke-miterlimit:10;" d="M 209.359375 117.144531 L 216.183594 133.523438 "/>
<path style="fill:none;stroke-width:1.2;stroke-linecap:butt;stroke-linejoin:miter;stroke:rgb(0%,0%,0%);stroke-opacity:1;stroke-miterlimit:10;" d="M 217.152344 99.476562 L 203.6875 117.101562 "/>
<path style="fill:none;stroke-width:1.2;stroke-linecap:butt;stroke-linejoin:miter;stroke:rgb(0%,0%,0%);stroke-opacity:1;stroke-miterlimit:10;" d="M 212.222656 137.578125 L 234.21875 140.425781 "/>
<path style="fill:none;stroke-width:1.2;stroke-linecap:butt;stroke-linejoin:miter;stroke:rgb(0%,0%,0%);stroke-opacity:1;stroke-miterlimit:10;" d="M 234.21875 140.425781 L 247.683594 122.796875 "/>
<path style="fill:none;stroke-width:1.2;stroke-linecap:butt;stroke-linejoin:miter;stroke:rgb(0%,0%,0%);stroke-opacity:1;stroke-miterlimit:10;" d="M 231.417969 135.492188 L 242.191406 121.390625 "/>
<path style="fill:none;stroke-width:1.2;stroke-linecap:butt;stroke-linejoin:miter;stroke:rgb(0%,0%,0%);stroke-opacity:1;stroke-miterlimit:10;" d="M 234.21875 140.425781 L 242.753906 160.898438 "/>
<path style="fill:none;stroke-width:1.2;stroke-linecap:butt;stroke-linejoin:miter;stroke:rgb(0%,0%,0%);stroke-opacity:1;stroke-miterlimit:10;" d="M 247.683594 122.796875 L 239.152344 102.324219 "/>
<path style="fill:none;stroke-width:1.2;stroke-linecap:butt;stroke-linejoin:miter;stroke:rgb(0%,0%,0%);stroke-opacity:1;stroke-miterlimit:10;" d="M 239.152344 102.324219 L 217.152344 99.476562 "/>
<path style="fill:none;stroke-width:1.2;stroke-linecap:butt;stroke-linejoin:miter;stroke:rgb(0%,0%,0%);stroke-opacity:1;stroke-miterlimit:10;" d="M 236.28125 107.214844 L 218.683594 104.9375 "/>
<path style="fill:none;stroke-width:1.2;stroke-linecap:butt;stroke-linejoin:miter;stroke:rgb(0%,0%,0%);stroke-opacity:1;stroke-miterlimit:10;" d="M 217.152344 99.476562 L 208.621094 79 "/>
<path style="fill:none;stroke-width:1.2;stroke-linecap:butt;stroke-linejoin:miter;stroke:rgb(0%,0%,0%);stroke-opacity:1;stroke-miterlimit:10;" d="M 242.417969 163.488281 L 253.417969 164.910156 "/>
<path style="fill:none;stroke-width:1.2;stroke-linecap:butt;stroke-linejoin:miter;stroke:rgb(100%,0%,0%);stroke-opacity:1;stroke-miterlimit:10;" d="M 253.417969 164.910156 L 264.414062 166.335938 "/>
<path style="fill:none;stroke-width:1.2;stroke-linecap:butt;stroke-linejoin:miter;stroke:rgb(0%,0%,0%);stroke-opacity:1;stroke-miterlimit:10;" d="M 243.085938 158.3125 L 254.085938 159.734375 "/>
<path style="fill:none;stroke-width:1.2;stroke-linecap:butt;stroke-linejoin:miter;stroke:rgb(100%,0%,0%);stroke-opacity:1;stroke-miterlimit:10;" d="M 254.085938 159.734375 L 265.085938 161.160156 "/>
<path style="fill:none;stroke-width:1.2;stroke-linecap:butt;stroke-linejoin:miter;stroke:rgb(0%,0%,0%);stroke-opacity:1;stroke-miterlimit:10;" d="M 242.753906 160.898438 L 236.019531 169.710938 "/>
<path style="fill:none;stroke-width:1.2;stroke-linecap:butt;stroke-linejoin:miter;stroke:rgb(0%,0%,100%);stroke-opacity:1;stroke-miterlimit:10;" d="M 236.019531 169.710938 L 229.289062 178.527344 "/>
<path style=" stroke:none;fill-rule:nonzero;fill:rgb(100%,100%,100%);fill-opacity:1;" d="M 260.75 158.246094 L 268.75 158.246094 L 268.75 169.246094 L 260.75 169.246094 Z M 260.75 158.246094 "/>
<g style="fill:rgb(100%,0%,0%);fill-opacity:1;">
  <use xlink:href="#glyph0-4" x="260.75" y="166.90918"/>
</g>
<path style="fill:none;stroke-width:1.2;stroke-linecap:butt;stroke-linejoin:miter;stroke:rgb(0%,0%,100%);stroke-opacity:1;stroke-miterlimit:10;" d="M 229.289062 178.527344 L 233.554688 188.761719 "/>
<path style="fill:none;stroke-width:1.2;stroke-linecap:butt;stroke-linejoin:miter;stroke:rgb(0%,0%,0%);stroke-opacity:1;stroke-miterlimit:10;" d="M 233.554688 188.761719 L 237.820312 199 "/>
<path style=" stroke:none;fill-rule:nonzero;fill:rgb(100%,100%,100%);fill-opacity:1;" d="M 222.289062 173.027344 L 236.289062 173.027344 L 236.289062 184.027344 L 222.289062 184.027344 Z M 222.289062 173.027344 "/>
<g style="fill:rgb(0%,0%,100%);fill-opacity:1;">
  <use xlink:href="#glyph0-2" x="222.289062" y="181.69043"/>
  <use xlink:href="#glyph0-3" x="229.266602" y="181.69043"/>
</g>
<path style="fill:none;stroke-width:1.2;stroke-linecap:butt;stroke-linejoin:miter;stroke:rgb(0%,0%,0%);stroke-opacity:1;stroke-miterlimit:10;" d="M 237.820312 199 L 255.449219 212.464844 "/>
<path style="fill:none;stroke-width:1.2;stroke-linecap:butt;stroke-linejoin:miter;stroke:rgb(0%,0%,0%);stroke-opacity:1;stroke-miterlimit:10;" d="M 234.972656 221 L 237.820312 199 "/>
<path style="fill:none;stroke-width:1.2;stroke-linecap:butt;stroke-linejoin:miter;stroke:rgb(0%,0%,0%);stroke-opacity:1;stroke-miterlimit:10;" d="M 255.449219 212.464844 L 234.972656 221 "/>
<path style="fill:none;stroke-width:1.2;stroke-linecap:butt;stroke-linejoin:miter;stroke:rgb(0%,0%,0%);stroke-opacity:1;stroke-miterlimit:10;" d="M 95.375 174.015625 L 77.121094 186.621094 "/>
<path style="fill:none;stroke-width:1.2;stroke-linecap:butt;stroke-linejoin:miter;stroke:rgb(0%,0%,0%);stroke-opacity:1;stroke-miterlimit:10;" d="M 77.121094 186.621094 L 57.078125 177.113281 "/>
<path style="fill:none;stroke-width:1.2;stroke-linecap:butt;stroke-linejoin:miter;stroke:rgb(0%,0%,0%);stroke-opacity:1;stroke-miterlimit:10;" d="M 77.355469 180.953125 L 61.320312 173.347656 "/>
</g>
</svg>

<svg xmlns="http://www.w3.org/2000/svg" xmlns:xlink="http://www.w3.org/1999/xlink" width="300pt" height="300pt" viewBox="0 0 300 300"><defs><symbol overflow="visible"><path d="M.453 1.594v-7.938h4.5v7.938zm.5-.5h3.5v-6.938h-3.5zm0 0"/></symbol><symbol overflow="visible" id="a"><path d="M.89-6.563h3.766v.75h-2.89v1.938h2.61v.734h-2.61V0H.89zm0 0"/></symbol><symbol overflow="visible" id="b"><path d="M.89-6.563H2.08l2.906 5.485v-5.484h.86V0H4.656L1.75-5.484V0H.89zm0 0"/></symbol><symbol overflow="visible" id="c"><path d="M.89-6.563h.876v2.688H5v-2.688h.89V0H5v-3.125H1.766V0H.89zm0 0"/></symbol><symbol overflow="visible" id="d"><path d="M3.547-5.953c-.65 0-1.164.242-1.547.72-.375.48-.563 1.13-.563 1.952 0 .835.188 1.49.563 1.967.383.48.898.72 1.547.72.644 0 1.156-.24 1.53-.72.376-.476.564-1.132.564-1.968 0-.822-.187-1.474-.562-1.954-.375-.477-.887-.72-1.53-.72zm0-.734c.914 0 1.648.312 2.203.937.55.617.828 1.438.828 2.47 0 1.042-.277 1.87-.828 2.483-.555.617-1.29.922-2.203.922-.93 0-1.668-.305-2.22-.922C.774-1.41.5-2.237.5-3.28c0-1.033.273-1.853.828-2.47.55-.625 1.29-.938 2.22-.938zm0 0"/></symbol></defs><g><path fill="#fff" d="M0 0h300v300H0z"/><path d="M35.25 145.5l10.02 4.754" stroke-width="1.2" stroke="#3cc" stroke-miterlimit="10" fill="none"/><path d="M45.27 150.254l10.023 4.75" stroke-width="1.2" stroke="#000" stroke-miterlimit="10" fill="none"/><path d="M29.25 140h6v11h-6zm0 0" fill="#fff"/><use xlink:href="#a" x="29.25" y="148.663" fill="#3cc"/><path d="M55.293 155.004l18.25-12.602M60.082 158.04l14.602-10.083M57.078 177.113l-1.785-22.11M73.543 142.402l20.043 9.504M93.586 151.906l9.125-6.3" stroke-width="1.2" stroke="#000" stroke-miterlimit="10" fill="none"/><path d="M102.71 145.605l9.13-6.3" stroke-width="1.2" stroke="#00f" stroke-miterlimit="10" fill="none"/><path d="M93.586 151.906l1.79 22.11M88.563 154.54l1.43 17.687" stroke-width="1.2" stroke="#000" stroke-miterlimit="10" fill="none"/><path d="M111.84 139.305l.53-22.176" stroke-width="1.2" stroke="#00f" stroke-miterlimit="10" fill="none"/><path d="M132.762 146.664l-10.46-3.68" stroke-width="1.2" stroke="#000" stroke-miterlimit="10" fill="none"/><path d="M122.3 142.984l-10.46-3.68" stroke-width="1.2" stroke="#00f" stroke-miterlimit="10" fill="none"/><path d="M108.84 133.805h7v11h-7zm0 0" fill="#fff"/><use xlink:href="#b" x="108.84" y="142.468" fill="#00f"/><path d="M112.37 117.13l10.626-3.173" stroke-width="1.2" stroke="#00f" stroke-miterlimit="10" fill="none"/><path d="M122.996 113.957l10.63-3.176" stroke-width="1.2" stroke="#000" stroke-miterlimit="10" fill="none"/><path d="M115.988 121.496l8.504-2.54" stroke-width="1.2" stroke="#00f" stroke-miterlimit="10" fill="none"/><path d="M124.492 118.957l8.5-2.54" stroke-width="1.2" stroke="#000" stroke-miterlimit="10" fill="none"/><path d="M109.37 111.63h7v11h-7zm0 0" fill="#fff"/><use xlink:href="#b" x="109.371" y="120.292" fill="#00f"/><path d="M133.625 110.78l12.602 18.255M146.227 129.035l-13.465 17.63M149.027 133.965l-10.77 14.1M168.227 131.883l-22-2.848M132.762 146.664l8.535 20.473M141.297 167.137l11 1.422" stroke-width="1.2" stroke="#000" stroke-miterlimit="10" fill="none"/><path d="M152.297 168.56l10.996 1.424" stroke-width="1.2" stroke="#00f" stroke-miterlimit="10" fill="none"/><path d="M144.164 162.246l8.8 1.137" stroke-width="1.2" stroke="#000" stroke-miterlimit="10" fill="none"/><path d="M152.965 163.383l8.8 1.14M163.293 169.984l13.465-17.63" stroke-width="1.2" stroke="#00f" stroke-miterlimit="10" fill="none"/><path d="M160.293 164.484h7v11h-7zm0 0" fill="#fff"/><use xlink:href="#b" x="160.293" y="173.147" fill="#00f"/><path d="M176.758 152.355l-4.266-10.234" stroke-width="1.2" stroke="#00f" stroke-miterlimit="10" fill="none"/><path d="M172.492 142.12l-4.265-10.237" stroke-width="1.2" stroke="#000" stroke-miterlimit="10" fill="none"/><path d="M171.09 152.316l-3.414-8.187" stroke-width="1.2" stroke="#00f" stroke-miterlimit="10" fill="none"/><path d="M167.676 144.13l-3.414-8.192" stroke-width="1.2" stroke="#000" stroke-miterlimit="10" fill="none"/><path d="M173.758 146.855h7v11h-7zm0 0" fill="#fff"/><use xlink:href="#b" x="173.758" y="155.519" fill="#00f"/><path d="M168.227 131.883l6.73-8.813" stroke-width="1.2" stroke="#000" stroke-miterlimit="10" fill="none"/><path d="M174.957 123.07l6.734-8.816M181.69 114.254l10.998 1.426" stroke-width="1.2" stroke="#00f" stroke-miterlimit="10" fill="none"/><path d="M192.688 115.68l11 1.422" stroke-width="1.2" stroke="#000" stroke-miterlimit="10" fill="none"/><path d="M174.69 108.754h14v11h-14zm0 0" fill="#fff"/><g fill="#00f"><use xlink:href="#b" x="174.691" y="117.417"/><use xlink:href="#c" x="181.669" y="117.417"/></g><path d="M203.688 117.102l8.535 20.476M209.36 117.145l6.824 16.378M217.152 99.477l-13.464 17.625M212.223 137.578l21.996 2.848M234.22 140.426l13.464-17.63M231.418 135.492l10.773-14.1M234.22 140.426l8.534 20.472M247.684 122.797l-8.532-20.473M239.152 102.324l-22-2.847M236.28 107.215l-17.596-2.278M217.152 99.477L208.622 79M242.418 163.488l11 1.422" stroke-width="1.2" stroke="#000" stroke-miterlimit="10" fill="none"/><path d="M253.418 164.91l10.996 1.426" stroke-width="1.2" stroke="#f00" stroke-miterlimit="10" fill="none"/><path d="M243.086 158.313l11 1.42" stroke-width="1.2" stroke="#000" stroke-miterlimit="10" fill="none"/><path d="M254.086 159.734l11 1.426" stroke-width="1.2" stroke="#f00" stroke-miterlimit="10" fill="none"/><path d="M242.754 160.898l-6.734 8.813" stroke-width="1.2" stroke="#000" stroke-miterlimit="10" fill="none"/><path d="M236.02 169.71l-6.73 8.817" stroke-width="1.2" stroke="#00f" stroke-miterlimit="10" fill="none"/><path d="M260.75 158.246h8v11h-8zm0 0" fill="#fff"/><use xlink:href="#d" x="260.75" y="166.909" fill="#f00"/><path d="M229.29 178.527l4.265 10.235" stroke-width="1.2" stroke="#00f" stroke-miterlimit="10" fill="none"/><path d="M233.555 188.762L237.82 199" stroke-width="1.2" stroke="#000" stroke-miterlimit="10" fill="none"/><path d="M222.29 173.027h14v11h-14zm0 0" fill="#fff"/><g fill="#00f"><use xlink:href="#b" x="222.289" y="181.69"/><use xlink:href="#c" x="229.267" y="181.69"/></g><path d="M237.82 199l17.63 13.465M234.973 221l2.847-22M255.45 212.465L234.972 221M95.375 174.016L77.12 186.62M77.12 186.62l-20.042-9.507M77.355 180.953l-16.035-7.605" stroke-width="1.2" stroke="#000" stroke-miterlimit="10" fill="none"/></g></svg>
